X: 40
T: Missa N'as tu pas &mdash; Kyrie
C: Gaspar van Weerbeke
%%abc-version 2.0
%%abcx-abcm2ps-target-version 5.9.1 (29 Sep 2008)
%%abc-creator hum2abc beta
%%abcx-conversion-date 2022/03/06 13:05:54
%%abc-copyright Copyright 2016, Kolb, Paul
%%abc-edited-by Zybina, Karina
%%humdrum-veritas 1686688995
%%humdrum-veritas-data 3243439994
%%linebreak <none>
%%barnumbers 0
L: 1/4
M: 2/2
N: Derived from Gas0203a-Missa_Nas_tu_pas-Kyrie.krn
%%staves [1 2 3 4]
V: 1 clef=treble
V: 2 clef=treble-8
V: 3 clef=treble-8
V: 4 clef=bass
K: F
[V:1] z4 | 
[V:2] F2A2 | 
[V:3] z4 | 
[V:4] F,2F,3/E,/ | 
[V:1] z4 | 
[V:2] B2c2 | 
[V:3] z4 | 
[V:4] D,/C,/D,C,A,, | 
[V:1] F2A2 | 
[V:2] df>ed/c/ | 
[V:3] z4 | 
[V:4] B,,>A,,F,,2 | 
[V:1] B2c3/B/ | 
[V:2] d2c2 | 
[V:3] z2F2 | 
[V:4] z4 | 
[V:1] A/G/F2E/D/ | 
[V:2] zcd2 | 
[V:3] A2B2 | 
[V:4] F,2D,2 | 
[V:1] E2zG | 
[V:2] G3E | 
[V:3] c4- | 
[V:4] C,>D,E,2 | 
[V:1] A2Gc- | 
[V:2] E3A- | 
[V:3] c4- | 
[V:4] A,,>B,,C,2 | 
[V:1] c/B/A/G/A2 | 
[V:2] A/G/F/E/F2 | 
[V:3] c4 | 
[V:4] F,,2z2 | 
[V:1] G>A B/A/B- | 
[V:2] E2Dd- | 
[V:3] c2d2- | 
[V:4] C,2B,,2- | 
[V:1] BA2G | 
[V:2] defe | 
[V:3] dcB2 | 
[V:4] B,,C,D,E, | 
[V:1] A3F- | 
[V:2] c3A | 
[V:3] A4- | 
[V:4] F,2C,D,- | 
[V:1] FE/D<CD/ | 
[V:2] d2e2 | 
[V:3] A4 | 
[V:4] D,C,/B,,<A,,B,,/ | 
[V:1] E/F/G2F- | 
[V:2] zedB- | 
[V:3] G>A B/c/d- | 
[V:4] C,2B,,2- | 
[V:1] FED2 | 
[V:2] B/A/G3 | 
[V:3] dc2=B | 
[V:4] B,,C,G,,2 | 
[V:1] C2zc- | 
[V:2] E2A2- | 
[V:3] c4- | 
[V:4] A,,4 | 
[V:1] c/B/AGA- | 
[V:2] AG/F/E2 | 
[V:3] c4 | 
[V:4] F,,2C,2 | 
[V:1] A/G/F/E/DG- | 
[V:2] F2G/A/B/c/ | 
[V:3] c2B2 | 
[V:4] z2G,,2- | 
[V:1] G/A/BA3/G/ | 
[V:2] def3/e/ | 
[V:3] zGAc- | 
[V:4] G,,2F,,/G,,/A,,/B,,/ | 
[V:1] EF2E | 
[V:2] c/A/Bc2 | 
[V:3] cFG2 | 
[V:4] C,D,C,2 | 
[V:1] F4 ||  
[V:2] c4 ||  
[V:3] F4 ||  
[V:4] F,4 ||  
[V:1] [M:2/2]z4 | 
[V:2] [M:2/2]c2c3/B/ | 
[V:3] [M:2/2]z4 | 
[V:4] [M:2/2]z4 | 
[V:1] z4 | 
[V:2] A/G<AG/E | 
[V:3] z4 | 
[V:4] C,2C,3/B,,/ | 
[V:1] z4 | 
[V:2] C/D/E/F<EF/ | 
[V:3] z4 | 
[V:4] A,,C,2C, | 
[V:1] z4 | 
[V:2] GA>GF | 
[V:3] z2c2 | 
[V:4] B,,A,,F,,3/G,,/ | 
[V:1] z2c2 | 
[V:2] E2z2 | 
[V:3] c>B A/G/A- | 
[V:4] A,,/B,,/C,F,,F,- | 
[V:1] c>BAc- | 
[V:2] fefe | 
[V:3] A/B/cdc | 
[V:4] F,/G,/A,D,A,- | 
[V:1] ccBA | 
[V:2] f>edc | 
[V:3] A2Bc- | 
[V:4] A,F,G,A, | 
[V:1] zc2B | 
[V:2] Af2e | 
[V:3] cB/A/G2 | 
[V:4] F,2z2 | 
[V:1] Ac2B/A/ | 
[V:2] f2zf- | 
[V:3] F2c2 | 
[V:4] zF,E,F, | 
[V:1] G2F2 | 
[V:2] fef3/e/ | 
[V:3] c>BAc- | 
[V:4] C,2F,2 | 
[V:1] zABc | 
[V:2] cAGA | 
[V:3] ccBA | 
[V:4] F,2G,F, | 
[V:1] d>cAG | 
[V:2] G2zd | 
[V:3] z2cB | 
[V:4] B,>A,F,G,- | 
[V:1] c2B2 | 
[V:2] efd3/e/ | 
[V:3] A2G2 | 
[V:4] G,F,G,2 | 
[V:1] AG2^F | 
[V:2] fd3 | 
[V:3] cBA2 | 
[V:4] F,G,D,2 | 
[V:1] G2zD | 
[V:2] B>GG2 | 
[V:3] G2B2 | 
[V:4] G,,2zG,, | 
[V:1] EFG3/F/ | 
[V:2] zdcB- | 
[V:3] cAG3/A/ | 
[V:4] C,D,E,G,- | 
[V:1] DCF2 | 
[V:2] B/A/G2F | 
[V:3] Bc2=B | 
[V:4] G,E,D,2 | 
[V:1] E4 ||  
[V:2] G4 ||  
[V:3] c4 ||  
[V:4] C,4 ||  
[V:1] [M:2/2]z4 | 
[V:2] [M:2/2]z2F2 | 
[V:3] [M:2/2]F2A3/B/ | 
[V:4] [M:2/2]z4 | 
[V:1] z4 | 
[V:2] A>BcA- | 
[V:3] c/B/A/G<AG/ | 
[V:4] z2F,,2 | 
[V:1] z4 | 
[V:2] AG/F/EA- | 
[V:3] E3C | 
[V:4] A,,>B,, C,/B,,/A,,/G,,/ | 
[V:1] AAAG- | 
[V:2] AG/F<EF/ | 
[V:3] C>D E/F/G/A/ | 
[V:4] A,,C,C,C, | 
[V:1] Gc2=B | 
[V:2] GAG2 | 
[V:3] Bcd2 | 
[V:4] B,,A,,z2 | 
[V:1] cCEF | 
[V:2] zAAA | 
[V:3] c3A | 
[V:4] A,,2A,,A,, | 
[V:1] G>FD2 | 
[V:2] D2dB- | 
[V:3] B>A G/F/G- | 
[V:4] G,,>A,,B,,G,,- | 
[V:1] zGF3/D/ | 
[V:2] BGAB | 
[V:3] GED2 | 
[V:4] G,,C,2B,, | 
[V:1] E2D2 | 
[V:2] Gc2=B | 
[V:3] zCG2 | 
[V:4] C,2z2 | 
[V:1] z2zC | 
[V:2] c4 | 
[V:3] AGE2 | 
[V:4] zC,C,C, | 
[V:1] G2AG | 
[V:2] zccc | 
[V:3] z2E3/F/ | 
[V:4] C,>B,,A,,C, | 
[V:1] E>FGA | 
[V:2] c>BGc | 
[V:3] GADE | 
[V:4] C,C,B,,A,, | 
[V:1] EA2G | 
[V:2] ccB2 | 
[V:3] AFG2 | 
[V:4] z4 | 
[V:1] A2z2 | 
[V:2] A2z2 | 
[V:3] D2zF | 
[V:4] zA,A,A, | 
[V:1] z4 | 
[V:2] z4 | 
[V:3] GB>AB | 
[V:4] B,/A,/G,/F,/ E,/D,/G,- | 
[V:1] zFGB | 
[V:2] z4 | 
[V:3] cAG2 | 
[V:4] G,F,2E, | 
[V:1] Ac2B/A/ | 
[V:2] cfe3/c/ | 
[V:3] F>G A/B/c- | 
[V:4] F,>E,C,2 | 
[V:1] G/F/BAG- | 
[V:2] efeg | 
[V:3] cdcB- | 
[V:4] zB,,C,_E,- | 
[V:1] GF2E | 
[V:2] G/>A/Bc2 | 
[V:3] B/A/FG2 | 
[V:4] E,/F,/D,C,2 | 
[V:1] F4 |]  
[V:2] c4 |]  
[V:3] F4 |]  
[V:4] F,,4 |]  


